svg/vscode.svg

<svg width="20" height="20" xmlns="http://www.w3.org/2000/svg">
<g clip-path="url(#clip0_1_8)">
<path d="M0.464968 7.08992C0.464968 7.08992 -0.00847512 6.74865 0.559657 6.29296L1.88332 5.10935C1.88332 5.10935 2.26208 4.71087 2.66253 5.05806L14.8774 14.306V18.7406C14.8774 18.7406 14.8714 19.4369 13.9778 19.36L0.464968 7.08992Z" fill="#2489CA"/>
<path d="M3.61335 9.94836L0.464953 12.8107C0.464953 12.8107 0.141434 13.0514 0.464953 13.4814L1.92671 14.811C1.92671 14.811 2.2739 15.1839 2.7868 14.7597L6.12457 12.2288L3.61335 9.94836Z" fill="#1070B3"/>
<path d="M9.1408 9.972L14.9148 5.56306L14.8774 1.15215C14.8774 1.15215 14.6308 0.189483 13.8082 0.690544L6.12457 7.68369L9.1408 9.972Z" fill="#0877B9"/>
<path d="M13.9778 19.3659C14.3132 19.7092 14.7195 19.5967 14.7195 19.5967L19.2192 17.3794C19.7952 16.9869 19.7144 16.4996 19.7144 16.4996V3.25899C19.7144 2.67704 19.1186 2.47583 19.1186 2.47583L15.2186 0.595868C14.3664 0.0691623 13.8082 0.690556 13.8082 0.690556C13.8082 0.690556 14.5262 0.173714 14.8774 1.15216V18.6597C14.8774 18.78 14.8517 18.8984 14.8004 19.0049C14.6978 19.212 14.4749 19.4054 13.9403 19.3245L13.9778 19.3659Z" fill="#3C99D4"/>
</g>
<defs>
<clipPath id="clip0_1_8">
<rect width="20" height="20" fill="white"/>
</clipPath>
</defs>
</svg>

<svg xmlns="http://www.w3.org/2000/svg" width="20" height="20"><g clip-path="url(#a)"><path fill="#2489CA" d="M.465 7.09s-.473-.341.095-.797l1.323-1.184s.38-.398.78-.05l12.214 9.247v4.435s-.006.696-.9.619L.466 7.09Z"/><path fill="#1070B3" d="M3.613 9.948.465 12.811s-.324.24 0 .67l1.462 1.33s.347.373.86-.051l3.338-2.531-2.512-2.28Z"/><path fill="#0877B9" d="m9.14 9.972 5.775-4.409-.038-4.41S14.631.188 13.808.69L6.125 7.684 9.14 9.972Z"/><path fill="#3C99D4" d="M13.978 19.366c.335.343.742.23.742.23l4.5-2.217c.575-.392.494-.88.494-.88V3.26c0-.582-.595-.783-.595-.783l-3.9-1.88c-.853-.527-1.41.095-1.41.095s.717-.517 1.068.461V18.66c0 .12-.025.238-.077.345-.102.207-.325.4-.86.32l.038.04Z"/></g><defs><clipPath id="a"><path fill="#fff" d="M0 0h20v20H0z"/></clipPath></defs></svg>
